!!!COM: Anon.
!!!OTL: Pajarito
!! Maria Cadilla de Martinez,
!! Juegos Y Canciones Infantiles de Puerto Rico
!! Talleres Graficos, Cas Baldrich, Brau 93, San Juan, P.R.
!! 1940.  Derechos reservados de la Autora
!! page 168
!! Allegro
**kern
*clefG2
*k[f#]
*M3/4
8g
8b
=
4dd
4dd
4dd
=
4ee
4dd
4b
=
2a
4g
=
4b
[2a
=
4a]
4r
8a
8a
=
4cc
4cc
4cc
=
4dd
4cc
4a
=
2f#
4d
=
4a
[2g
=
4g]
2r
=
4dd
4dd
4dd
=
4dd
2b
=
4dd
4.dd
8dd
=
4ee
4b
8g
8a
=
4b
4b
4b
=
4cc
4a
4f#
=
2d
4f#
=
4a
[2g
=
4g]
4r
==
*-
